X: 100190
M: C|
L: 1/8
K: C
uc |\
uf |\
((3efg) ((3fga) e>cc<e | d<B(c>G) [E2C2][EC]g |
((3efg) ((3fga) e>cc<e | G<cE<c [D3B,3]f |\
((3efg) ((3fga) e>cc<e | d<B(c>G) [E2C2][EC]e |\
c<ed<e c<eA<c | G<cE<c [D3B,3] |]
|: (e/f/) |\
g<c(a>c) (g>c)e<a | g<c(g>d) e2ef |\
g<c(a>c) (g>c)e<a | g<c(g>e) {e}d2d :|\
ue |\
c>e d/c/B/A/ G>EE<c | G<E(c>G) [E2C2][EC]e |
c>.e .d/.c/.B/.A/ G<(E"_>"E>c) | G<c E<c [D3B,3]d |\
c>.e .d/.c/.B/.A/ G<(E"_>"E>c) | G<E(c>G) [E2C2][EC]e |\
c<e d<e c<e A<c | G<c "_Segue Reel."E<c [D3B,3] "^D.C."|]


